public/svgs/twin/anatomy-m0-1.svg

<svg width="100%" height="100%" viewBox="0 0 32 32" fill="none" xmlns="http://www.w3.org/2000/svg">
<path d="M10.7836 19.4081C13.3756 17.0241 16.1116 16.6401 19.1196 18.5601C18.5756 18.0641 18.0156 17.5681 17.4076 17.0081C18.7036 15.0401 20.4956 13.8881 22.8796 13.7601C25.2796 13.6321 27.1676 14.5921 28.4156 16.6401C30.3036 19.7441 29.4556 23.6961 26.5596 25.3441C25.2156 26.1121 23.6956 26.3361 22.1756 26.2721C20.7356 26.2081 19.4396 26.5601 18.1436 27.1361C13.9356 29.0081 9.69559 28.5921 5.48759 27.1681C5.03959 27.0081 4.60759 26.7681 4.19159 26.5121C2.60759 25.5201 2.33559 24.8481 2.68759 23.0241C3.35959 19.6801 4.55959 16.5441 6.60759 13.7601C7.83959 12.0801 9.02359 10.3681 10.1756 8.64012C11.1036 7.26412 12.2876 6.33612 13.9676 6.14412C15.2956 5.98412 16.6236 5.77612 17.9516 5.72812C18.3356 5.71212 18.8316 6.03212 19.1196 6.35212C19.5996 6.86412 19.9356 7.52012 20.3516 8.08012C20.7356 8.60812 20.7036 9.05612 20.1596 9.37612C18.6876 10.2401 17.1996 10.8321 15.4556 10.0641C14.9596 9.84012 14.2716 10.0481 13.6956 9.98412C12.8316 9.87212 12.7516 10.5921 12.5116 11.0881C11.2476 13.6801 10.4796 16.3841 10.7836 19.4081Z" fill="current"/>
</svg>

<svg xmlns="http://www.w3.org/2000/svg" fill="none" viewBox="0 0 32 32"><path fill="current" d="M10.784 19.408c2.592-2.384 5.328-2.768 8.336-.848-.544-.496-1.104-.992-1.712-1.552 1.296-1.968 3.088-3.12 5.472-3.248 2.4-.128 4.288.832 5.536 2.88 1.888 3.104 1.04 7.056-1.856 8.704-1.344.768-2.864.992-4.384.928-1.44-.064-2.736.288-4.032.864-4.208 1.872-8.448 1.456-12.656.032-.448-.16-.88-.4-1.296-.656-1.584-.992-1.856-1.664-1.504-3.488.672-3.344 1.872-6.48 3.92-9.264a140 140 0 0 0 3.568-5.12c.928-1.376 2.112-2.304 3.792-2.496 1.328-.16 2.656-.368 3.984-.416.384-.016.88.304 1.168.624.48.512.816 1.168 1.232 1.728.384.528.352.976-.192 1.296-1.472.864-2.96 1.456-4.704.688-.496-.224-1.184-.016-1.76-.08-.864-.112-.944.608-1.184 1.104-1.264 2.592-2.032 5.296-1.728 8.32"/></svg>
